X:3
T:Finn McCool's
C:David James
H:After a great pub in Porter(!), Indiana where Kim
Hoffmann and I held court for 4 1/2 years on Thursday
night. Our guest each week was drawn from the finest
Irish musicians - our "heroes" list. More tunes, more stuff
at tiompanalley.com website.
L:1/8
M:4/4
R:Reel
K:D
(3ABc |: "S"dcde fd {e} dA | B3 c eBAG | F2 DE defd | (3efg fd e2 (3ABc |
dcde fdAF | G3 A BG G2 | efge cABc | dfec dABc :|
|: dfaf g2 fd | gefd e3 f | gB B2 (3gag af | gB B2 gfec | dfaf g2 fd |
gefd e3 a | bg g2 af f2  :|1 e3 f edcA :|2 e3 f ge"D.S."ce || "To end:"d8 ||
